site/assets/img/stamps/building-jwt-tokens.svg

<svg xmlns="http://www.w3.org/2000/svg" viewBox="0 0 90 90"><defs><style>.cls-1{fill:#147894;}.cls-2{fill:#13ebf2;}.cls-3{fill:#02b6d3;}</style></defs><g id="Layer_2" data-name="Layer 2"><g id="Layer_1-2" data-name="Layer 1"><circle class="cls-1" cx="45" cy="45" r="45"/><path class="cls-2" d="M68,59H60a1,1,0,0,0-1,1v8a1,1,0,0,0,1,1h8a1,1,0,0,0,1-1V60A1,1,0,0,0,68,59Z"/><path class="cls-2" d="M56,59H48a1,1,0,0,0-1,1v8a1,1,0,0,0,1,1h8a1,1,0,0,0,1-1V60A1,1,0,0,0,56,59Z"/><path class="cls-2" d="M63,56V47H53v9a1,1,0,0,0,1,1h8A1,1,0,0,0,63,56Z"/><path class="cls-3" d="M63,26a5,5,0,0,0-5-5H26a5,5,0,0,0-5,5v3H63ZM28,27a1,1,0,1,1,1-1A1,1,0,0,1,28,27Zm4,0a1,1,0,1,1,1-1A1,1,0,0,1,32,27Zm4,0a1,1,0,1,1,1-1A1,1,0,0,1,36,27Z"/><path class="cls-3" d="M21,31V50a5,5,0,0,0,5,5H51V46a1,1,0,0,1,1-1H63V31ZM50.46,42.42h-1.2l-1.07,1.07-1.07-1.07h-.25l-1.08,1.07-1.07-1.07h-.25L43.4,43.49l-1.08-1.07H38.87a6.28,6.28,0,0,1-1.46,2.27,6.35,6.35,0,1,1,0-9A6.28,6.28,0,0,1,38.87,38H50.46l2.22,2.22Z"/><circle class="cls-3" cx="30.52" cy="40.2" r="1.69"/></g></g></svg>

<svg xmlns="http://www.w3.org/2000/svg" viewBox="0 0 90 90"><circle cx="45" cy="45" r="45" fill="#147894"/><path d="M68 59h-8a1 1 0 0 0-1 1v8a1 1 0 0 0 1 1h8a1 1 0 0 0 1-1v-8a1 1 0 0 0-1-1zm-12 0h-8a1 1 0 0 0-1 1v8a1 1 0 0 0 1 1h8a1 1 0 0 0 1-1v-8a1 1 0 0 0-1-1zm7-3v-9H53v9a1 1 0 0 0 1 1h8a1 1 0 0 0 1-1z" fill="#13ebf2"/><g fill="#02b6d3"><path d="M63 26a5 5 0 0 0-5-5H26a5 5 0 0 0-5 5v3h42zm-35 1a1 1 0 1 1 1-1 1 1 0 0 1-1 1zm4 0a1 1 0 1 1 1-1 1 1 0 0 1-1 1zm4 0a1 1 0 1 1 1-1 1 1 0 0 1-1 1zm-15 4v19a5 5 0 0 0 5 5h25v-9a1 1 0 0 1 1-1h11V31zm29.46 11.42h-1.2L48.2 43.5l-1.07-1.07h-.25L45.8 43.5l-1.07-1.07h-.25L43.4 43.5l-1.08-1.07h-3.45a6.28 6.28 0 0 1-1.46 2.27 6.35 6.35 0 1 1 0-9 6.28 6.28 0 0 1 1.46 2.3h11.6l2.22 2.22z"/><circle cx="30.52" cy="40.2" r="1.69"/></g></svg>
